X: 9468
T: Darby The Driver
R: jig
M: 6/8
K: Adorian
|:G|EAA ABd|ege dBA|GEF GAB|dBA GED|
EAA ABd|ege def|g2d ege|dBA A2:|
|:g|eag e2d|eaa bag|efg dBd|eba ged|
eag e2d|eaa bag|efg edB|BAG A2:|

